!! 00000] TT[WS
!!!OTL: Wushi chuchengdong
!!!ARE: Asia, China, Shanxi Linxian
!! Ethnic Group: Han
!! WII, 57 (2)
!!!SCT: J0480
!!!YEM: Copyright 1995, estate of Helmut Schaffrath.
**kern
*ICvox
*Ivox
*M2/4
*k[f#]
*G:
{8dd
8dd
8ee
8b
=1
8dd
8ee
4dd
=2
8a
8dd
8b
8dd
=3
8e
8g
4a}
=4
{8dd
8dd
8ee
8b
=5
8dd
8ee
4dd
=6
8a
8dd
8b
8dd
=7
8e
8g
4a}
=8
{8dd
8b
4dd
=9
8dd
8ee
8dd
8b
=10
4dd
8e
8g
=11
4cc
8a
8g
=12
8e
8a
8g
8e
=13
2d}
==
!!!AGN: Xiaodiao. Qingge, Sichun
!!!ONB: ESAC (Essen Associative Code) Database: CHINA
!!!AMT: simple duple
!!!AIN: vox
!!!EED: Helmut Schaffrath
!!!EEV: 1.0
*-
